src/svgs/hospital-bed.svg

<svg xmlns="http://www.w3.org/2000/svg" viewBox="0 0 24 24" width="512" height="512" aria-labelledby="fghospital-bed-desc fghospital-bed-title"><title id="fghospital-bed-title">Hospital-Bed Icon</title><desc id="fghospital-bed-desc">A picture depicting a bed with the capital letter H next to it.</desc><path d="M20 15h2v7h-2v-2H4v2H2V8h2v6h3v3h13zm2-13v8h-8V2zm-2 2h-1v1.5h-2V4h-1v4h1V6.5h2V8h1V4z"/></svg>

<svg xmlns="http://www.w3.org/2000/svg" viewBox="0 0 24 24"><path d="M20,15h2v7H20V20H4v2H2V8H4v6H7v3H20ZM22,2v8H14V2ZM20,4H19V5.5H17V4H16V8h1V6.5h2V8h1V4Z"/></svg>
